content/en/docs/concepts/traffic-management/virtual-services-1.svg

<svg xmlns="http://www.w3.org/2000/svg" viewBox="0 0 485.65 194"><defs><style>.a539b085-9b36-4a5d-a3ca-65912a07b708{fill:none;stroke-linejoin:round}.f819bc16-e839-4ce3-a3c7-31ed11264961{font-size:16px}.ad57db7c-ab3d-452e-a52d-9015ad65bf5d,.f819bc16-e839-4ce3-a3c7-31ed11264961{font-family:GoogleSans-Regular,Google Sans}.bc9e6f8b-da62-4750-8230-49fe4177fb8c{letter-spacing:0}.a2105210-e62c-413c-b2e0-1f9974a9b9ef{letter-spacing:-.01em}.f0e87582-7e4a-4538-8733-5d009e8422b8{letter-spacing:.01em}.a539b085-9b36-4a5d-a3ca-65912a07b708{stroke:#486baf;stroke-width:4px;stroke-linecap:round}.fb1046d2-4a9f-4c7a-b98b-be1d2fd34f11{letter-spacing:-.02em}.f45b74d8-b724-4fcb-a594-0de86273d450{fill:#fff}.ad57db7c-ab3d-452e-a52d-9015ad65bf5d{font-size:14px}.f9967ce8-3ed3-4367-b5b5-4ee84cd9fe33{letter-spacing:-.01em}.baca4e8e-97bc-46e9-aef3-d6c7e681cccd{letter-spacing:0}</style></defs><g id="eb829772-c886-419c-9ee1-a763c37617aa" data-name="Service-relationships"><rect x="33.5" y="21.64" width="451.65" height="171.86" rx="10" stroke-linejoin="round" stroke="#466bb0" stroke-dasharray="10.08 10.08" fill="none"/><text class="f819bc16-e839-4ce3-a3c7-31ed11264961" transform="translate(33.9 13.73)">I<tspan class="bc9e6f8b-da62-4750-8230-49fe4177fb8c" x="3.9" y="0">s</tspan><tspan x="11.39" y="0" letter-spacing="0">t</tspan><tspan class="a2105210-e62c-413c-b2e0-1f9974a9b9ef" x="17.33" y="0">i</tspan><tspan x="20.86" y="0">o M</tspan><tspan class="f0e87582-7e4a-4538-8733-5d009e8422b8" x="47.97" y="0">e</tspan><tspan x="57.06" y="0">sh</tspan></text><path class="a539b085-9b36-4a5d-a3ca-65912a07b708" d="M279.08 144h3"/><path stroke-dasharray="6 12" stroke-linecap="round" stroke="#486baf" stroke-width="4" stroke-linejoin="round" fill="none" d="M294.08 144h120"/><path class="a539b085-9b36-4a5d-a3ca-65912a07b708" d="M420.08 144h3"/><text class="f819bc16-e839-4ce3-a3c7-31ed11264961" transform="translate(255.91 171)"><tspan class="fb1046d2-4a9f-4c7a-b98b-be1d2fd34f11">C</tspan><tspan x="11.54" y="0" letter-spacing="-.01em">on</tspan><tspan class="a2105210-e62c-413c-b2e0-1f9974a9b9ef" x="29.73" y="0">fig</tspan><tspan x="48.62" y="0" letter-spacing="0">u</tspan><tspan x="57.6" y="0" letter-spacing="-.02em">r</tspan><tspan x="63.28" y="0">a</tspan><tspan class="a2105210-e62c-413c-b2e0-1f9974a9b9ef" x="71.78" y="0">bl</tspan><tspan x="84.62" y="0">e t</tspan><tspan class="fb1046d2-4a9f-4c7a-b98b-be1d2fd34f11" x="103.2" y="0">r</tspan><tspan x="108.88" y="0" letter-spacing="-.01em">aff</tspan><tspan class="bc9e6f8b-da62-4750-8230-49fe4177fb8c" x="117.22" y="0">i</tspan><tspan x="131.7" y="0">c </tspan><tspan x="144.14" y="0" letter-spacing="-.03em">r</tspan><tspan class="bc9e6f8b-da62-4750-8230-49fe4177fb8c" x="149.66" y="0">o</tspan><tspan class="f0e87582-7e4a-4538-8733-5d009e8422b8" x="159.12" y="0">u</tspan><tspan x="168.18" y="0" letter-spacing="-.02em">t</tspan><tspan class="f0e87582-7e4a-4538-8733-5d009e8422b8" x="173.68" y="0">e</tspan><tspan x="182.77" y="0">s</tspan></text><rect x="252.25" y="40.86" width="197.65" height="72" rx="3" fill="#e6e6e6"/><rect class="f45b74d8-b724-4fcb-a594-0de86273d450" x="260.9" y="49.86" width="54" height="54" rx="3"/><path stroke="#e905ee" stroke-width="3" stroke-linejoin="round" fill="none" d="M301.16 84.51v-15.3l-13.26-7.65-13.26 7.65v15.3l13.26 7.65 13.26-7.65z"/><rect class="f45b74d8-b724-4fcb-a594-0de86273d450" x="323.9" y="49.86" width="117" height="54" rx="3"/><text class="ad57db7c-ab3d-452e-a52d-9015ad65bf5d" transform="translate(387.27 81.7)">s<tspan class="f9967ce8-3ed3-4367-b5b5-4ee84cd9fe33" x="6.62" y="0">v</tspan><tspan class="baca4e8e-97bc-46e9-aef3-d6c7e681cccd" x="13.61" y="0">c-X</tspan></text><circle cx="350.9" cy="76.86" r="18" fill="#757575"/><path stroke="#fff" stroke-width="2" stroke-linejoin="round" fill="none" d="M344.51 70.34h12.79v12.79h-12.79z"/><path d="M346.87 70.34v-3.07m4.03 3.07v-3.07m4.03 3.07v-3.07m-8.06 19.18v-3.08m4.03 3.08v-3.08m4.03 3.08v-3.08m-10.54-2.49h-3.08m3.08-4.02h-3.08m3.08-4.03h-3.08m19.18 8.05h-3.08m3.08-4.02h-3.08m3.08-4.03h-3.08" stroke="#fff" stroke-width="2" stroke-miterlimit="10" stroke-linecap="round" fill="none"/><rect class="f45b74d8-b724-4fcb-a594-0de86273d450" x="348.06" y="73.9" width="5.68" height="5.68" rx="2"/><rect x="73.11" y="39.82" width="123.25" height="75.44" rx="3" fill="#e5e5e4"/><rect class="f45b74d8-b724-4fcb-a594-0de86273d450" x="81.92" y="83.25" width="105.64" height="26.41" rx="3"/><text class="ad57db7c-ab3d-452e-a52d-9015ad65bf5d" transform="translate(105.54 100.6)"><tspan letter-spacing=".01em">v</tspan><tspan x="7.28" y="0" letter-spacing="0">t</tspan><tspan x="12.47" y="0">l-s</tspan><tspan class="f9967ce8-3ed3-4367-b5b5-4ee84cd9fe33" x="28.22" y="0">v</tspan><tspan class="baca4e8e-97bc-46e9-aef3-d6c7e681cccd" x="35.21" y="0">c-A</tspan></text><path id="adf49a18-3904-44e6-98cf-d4a422b845f5" data-name="background" fill="#486baf" d="M120.52 39.82h28.44v28.44h-28.44z"/><path id="b8037049-ef17-40f5-924a-7ecbb5ced007" data-name="hull" class="f45b74d8-b724-4fcb-a594-0de86273d450" d="M126.14 63.71h17.2l-10.75 3.23-6.45-3.23z"/><path id="a15e595d-6875-4a5d-aebe-d4786d3191a6" data-name="mainsail" class="f45b74d8-b724-4fcb-a594-0de86273d450" d="M126.14 62.63l6.45-1.07V49.73l-6.45 12.9z"/><path id="a8512c8d-57f2-4da5-bb76-75536e66cf08" data-name="headsail" class="f45b74d8-b724-4fcb-a594-0de86273d450" d="M133.66 61.56l9.68 1.07-9.68-21.49v20.42z"/><path class="a539b085-9b36-4a5d-a3ca-65912a07b708" d="M57 77.54h3"/><path stroke-dasharray="6.18 12.37" stroke-linecap="round" stroke="#486baf" stroke-width="4" stroke-linejoin="round" fill="none" d="M72.37 77.54h179.35"/><path class="a539b085-9b36-4a5d-a3ca-65912a07b708" d="M257.9 77.54h3"/></g></svg>

<svg xmlns="http://www.w3.org/2000/svg" viewBox="0 0 485.65 194"><defs><style>.a539b085-9b36-4a5d-a3ca-65912a07b708,.ee18ecaa-f987-4a3f-b45d-bd7cadb8df7e{fill:none}.a539b085-9b36-4a5d-a3ca-65912a07b708{stroke-linejoin:round}.f819bc16-e839-4ce3-a3c7-31ed11264961{font-size:16px}.ad57db7c-ab3d-452e-a52d-9015ad65bf5d,.f819bc16-e839-4ce3-a3c7-31ed11264961{font-family:GoogleSans-Regular,Google Sans}.bc9e6f8b-da62-4750-8230-49fe4177fb8c{letter-spacing:0}.a2105210-e62c-413c-b2e0-1f9974a9b9ef{letter-spacing:-.01em}.f0e87582-7e4a-4538-8733-5d009e8422b8{letter-spacing:.01em}.a539b085-9b36-4a5d-a3ca-65912a07b708{stroke:#486baf;stroke-width:4px;stroke-linecap:round}.ee18ecaa-f987-4a3f-b45d-bd7cadb8df7e{stroke-linecap:round}.fb1046d2-4a9f-4c7a-b98b-be1d2fd34f11{letter-spacing:-.02em}.f45b74d8-b724-4fcb-a594-0de86273d450{fill:#fff}.ad57db7c-ab3d-452e-a52d-9015ad65bf5d{font-size:14px}.f9967ce8-3ed3-4367-b5b5-4ee84cd9fe33{letter-spacing:-.01em}.baca4e8e-97bc-46e9-aef3-d6c7e681cccd{letter-spacing:0}.ee18ecaa-f987-4a3f-b45d-bd7cadb8df7e{stroke:#fff;stroke-width:2px;stroke-miterlimit:10}</style></defs><g id="eb829772-c886-419c-9ee1-a763c37617aa" data-name="Service-relationships"><rect x="33.5" y="21.64" width="451.65" height="171.86" rx="10" stroke-linejoin="round" stroke="#466bb0" stroke-dasharray="10.08 10.08" fill="none"/><text class="f819bc16-e839-4ce3-a3c7-31ed11264961" transform="translate(33.9 13.73)">I<tspan class="bc9e6f8b-da62-4750-8230-49fe4177fb8c" x="3.9" y="0">s</tspan><tspan x="11.39" y="0" letter-spacing="0">t</tspan><tspan class="a2105210-e62c-413c-b2e0-1f9974a9b9ef" x="17.33" y="0">i</tspan><tspan x="20.86" y="0">o M</tspan><tspan class="f0e87582-7e4a-4538-8733-5d009e8422b8" x="47.97" y="0">e</tspan><tspan x="57.06" y="0">sh</tspan></text><path class="a539b085-9b36-4a5d-a3ca-65912a07b708" d="M279.08 144h3"/><path stroke-dasharray="6 12" stroke-linecap="round" stroke="#486baf" stroke-width="4" stroke-linejoin="round" fill="none" d="M294.08 144h120"/><path class="a539b085-9b36-4a5d-a3ca-65912a07b708" d="M420.08 144h3"/><text class="f819bc16-e839-4ce3-a3c7-31ed11264961" transform="translate(255.91 171)"><tspan class="fb1046d2-4a9f-4c7a-b98b-be1d2fd34f11">C</tspan><tspan x="11.54" y="0" letter-spacing="-.01em">on</tspan><tspan class="a2105210-e62c-413c-b2e0-1f9974a9b9ef" x="29.73" y="0">fig</tspan><tspan x="48.62" y="0" letter-spacing="0">u</tspan><tspan x="57.6" y="0" letter-spacing="-.02em">r</tspan><tspan x="63.28" y="0">a</tspan><tspan class="a2105210-e62c-413c-b2e0-1f9974a9b9ef" x="71.78" y="0">bl</tspan><tspan x="84.62" y="0">e t</tspan><tspan class="fb1046d2-4a9f-4c7a-b98b-be1d2fd34f11" x="103.2" y="0">r</tspan><tspan x="108.88" y="0" letter-spacing="-.01em">aff</tspan><tspan class="bc9e6f8b-da62-4750-8230-49fe4177fb8c" x="117.22" y="0">i</tspan><tspan x="131.7" y="0">c </tspan><tspan x="144.14" y="0" letter-spacing="-.03em">r</tspan><tspan class="bc9e6f8b-da62-4750-8230-49fe4177fb8c" x="149.66" y="0">o</tspan><tspan class="f0e87582-7e4a-4538-8733-5d009e8422b8" x="159.12" y="0">u</tspan><tspan x="168.18" y="0" letter-spacing="-.02em">t</tspan><tspan class="f0e87582-7e4a-4538-8733-5d009e8422b8" x="173.68" y="0">e</tspan><tspan x="182.77" y="0">s</tspan></text><rect x="252.25" y="40.86" width="197.65" height="72" rx="3" fill="#e6e6e6"/><rect class="f45b74d8-b724-4fcb-a594-0de86273d450" x="260.9" y="49.86" width="54" height="54" rx="3"/><path stroke="#e905ee" stroke-width="3" stroke-linejoin="round" fill="none" d="M301.16 84.51v-15.3l-13.26-7.65-13.26 7.65v15.3l13.26 7.65 13.26-7.65z"/><rect class="f45b74d8-b724-4fcb-a594-0de86273d450" x="323.9" y="49.86" width="117" height="54" rx="3"/><text class="ad57db7c-ab3d-452e-a52d-9015ad65bf5d" transform="translate(387.27 81.7)">s<tspan class="f9967ce8-3ed3-4367-b5b5-4ee84cd9fe33" x="6.62" y="0">v</tspan><tspan class="baca4e8e-97bc-46e9-aef3-d6c7e681cccd" x="13.61" y="0">c-X</tspan></text><circle cx="350.9" cy="76.86" r="18" fill="#757575"/><path stroke="#fff" stroke-width="2" stroke-linejoin="round" fill="none" d="M344.51 70.34h12.79v12.79h-12.79z"/><path class="ee18ecaa-f987-4a3f-b45d-bd7cadb8df7e" d="M346.87 70.34v-3.07M350.9 70.34v-3.07M354.93 70.34v-3.07M346.87 86.45v-3.08M350.9 86.45v-3.08M354.93 86.45v-3.08M344.39 80.88h-3.08M344.39 76.86h-3.08M344.39 72.83h-3.08M360.49 80.88h-3.08M360.49 76.86h-3.08M360.49 72.83h-3.08"/><rect class="f45b74d8-b724-4fcb-a594-0de86273d450" x="348.06" y="73.9" width="5.68" height="5.68" rx="2"/><rect x="73.11" y="39.82" width="123.25" height="75.44" rx="3" fill="#e5e5e4"/><rect class="f45b74d8-b724-4fcb-a594-0de86273d450" x="81.92" y="83.25" width="105.64" height="26.41" rx="3"/><text class="ad57db7c-ab3d-452e-a52d-9015ad65bf5d" transform="translate(105.54 100.6)"><tspan letter-spacing=".01em">v</tspan><tspan x="7.28" y="0" letter-spacing="0">t</tspan><tspan x="12.47" y="0">l-s</tspan><tspan class="f9967ce8-3ed3-4367-b5b5-4ee84cd9fe33" x="28.22" y="0">v</tspan><tspan class="baca4e8e-97bc-46e9-aef3-d6c7e681cccd" x="35.21" y="0">c-A</tspan></text><path id="adf49a18-3904-44e6-98cf-d4a422b845f5" data-name="background" fill="#486baf" d="M120.52 39.82h28.44v28.44h-28.44z"/><path id="b8037049-ef17-40f5-924a-7ecbb5ced007" data-name="hull" class="f45b74d8-b724-4fcb-a594-0de86273d450" d="M126.14 63.71h17.2l-10.75 3.23-6.45-3.23z"/><path id="a15e595d-6875-4a5d-aebe-d4786d3191a6" data-name="mainsail" class="f45b74d8-b724-4fcb-a594-0de86273d450" d="M126.14 62.63l6.45-1.07V49.73l-6.45 12.9z"/><path id="a8512c8d-57f2-4da5-bb76-75536e66cf08" data-name="headsail" class="f45b74d8-b724-4fcb-a594-0de86273d450" d="M133.66 61.56l9.68 1.07-9.68-21.49v20.42z"/><path class="a539b085-9b36-4a5d-a3ca-65912a07b708" d="M57 77.54h3"/><path stroke-dasharray="6.18 12.37" stroke-linecap="round" stroke="#486baf" stroke-width="4" stroke-linejoin="round" fill="none" d="M72.37 77.54h179.35"/><path class="a539b085-9b36-4a5d-a3ca-65912a07b708" d="M257.9 77.54h3"/></g></svg>
